dist/svg/redo.svg

<svg width="16" height="16" viewBox="0 0 16 16" fill="rgb(34, 34, 34)" xmlns="http://www.w3.org/2000/svg"><title>redo</title><path d="M10 6.99998L11.995 5.00498C11.074 3.78998 9.63 3.01298 8.005 3.01298C5.247 3.01298 3.012 5.24798 3.012 8.00598C3.012 10.764 5.247 12.999 8.005 12.999C9.844 12.999 11.451 12.004 12.318 10.524L12.331 10.5L14.063 11.5C12.83 13.611 10.576 15.007 7.995 15.007C4.128 15.007 0.992001 11.872 0.992001 8.00398C0.992001 4.13598 4.127 1.00098 7.995 1.00098C10.178 1.00098 12.128 1.99998 13.412 3.56598L13.422 3.57798L15.001 1.99898V6.99898L10 6.99998Z" fill="rgb(34, 34, 34)" fill-opacity="1.00"/></svg>

<!-- Generated by Trend Micro Style Portal -->
<svg version="1.1" xmlns="http://www.w3.org/2000/svg" width="16" height="16" viewBox="0 0 16 16">
  <title>redo</title>
  <path fill="rgb(34,34,34)" d="M10 7l1.995-1.995c-0.921-1.215-2.365-1.992-3.99-1.992-2.758 0-4.993 2.235-4.993 4.993s2.235 4.993 4.993 4.993c1.839 0 3.446-0.995 4.313-2.475l0.013-0.024 1.732 1c-1.233 2.111-3.487 3.507-6.068 3.507-3.867 0-7.003-3.135-7.003-7.003s3.135-7.003 7.003-7.003c2.183 0 4.133 0.999 5.417 2.565l0.010 0.012 1.579-1.579v5z"></path>
</svg>
